X:1
T:Non è lasso martire
T:Non è lasso martire
T:Jean de Castro
T:Source : Chansons, madrigaux et motetz à 3 parties---Anvers---P.Phalèse---1582. Editor : André Vierendeels (10/02/16).
T:Notes : Original clefs : C1, C2, C4 Editorial accidentals above the staff
T:©
T:©
T:©
T:©
T:©
T:©
T:©
T:©
T:©
T:©
C:Jean de Castro
Z:©
%%score [ 1 2 3 ]
L:1/8
Q:1/4=132
M:2/2
K:C
V:1 treble nm="Superius" snm="S"
V:2 treble nm="Alto" snm="A"
V:3 treble-8 nm="Tenor" snm="T"
V:1
 z8 | z8 | E8 | E4 e4- | e4 d4- | d4 c4 | B8 | A8 | z4 G4 | G8 | A8- | A4 G4- | G4 E4 | F8 | %14
w: ||Non|è las-|* so|_ mar-|ti-|re,|non|è|las-|* so|_ mar-|ti-|
 E4 E4 | A6 A2 | A4 B4 | c8- | c4 B4 | A4 G4 | A4 B4 | z4 E4 | A6 A2 | A4 ^G4 | A4 c4 | c4 A4 | %26
w: re, il|con- ve-|nir per|voi,|_ don-|na, mo-|ri- re,|il|con- ve-|nir per|voi, don-|na, mo-|
 ^c4 d4 | z2 A4 d2- | d2 c2 B4 | A4 z2 E2 | E4 E4 | G4 E4 | D4 G4 | A8- | A4 c4 | B8 | c4 z2 A2 | %37
w: ri- re,|don- na,|_ mo- ri-|re, se|la ca-|gion de|la mia|mor-|* t'è|ta-|le, se|
 A4 A4 | c4 A4 | G4 c4 | _B4 G4 | _B8 | A8 | z4 A4 | A4 A4 | c4 A4 | G8 | E8 | F2 E4 D2 | E8 | %50
w: la ca-|gion de|la mia|mor- t'è|ta-|le,|se|la ca-|gion de|la|mia|mor- t'è ta-|le,|
 z4 z2 B2 | ^c4 d4 | c2 A2 B4 | A4 z2 E2 | ^F4 z2 G2 | A4 G4 | F2 D2 E4 | D4 d4 | c6 A2 | B4 c4 | %60
w: che|fa lie-|ve'o- gni ma-|le, che|fa, che|fa lie-|ve'o- gni ma-|le, ma|quel che|mi tor-|
 B4 A4 | z4 z2 A2 | G6 F2 | E2 D2 E4 | D8 | z4 d4 | c6 B2 | A4 F4 | E8 | E8 | z4 A4 | ^G4 G4 | %72
w: men- ta,|ma|quel che|mi tor- men-|ta,|ma|quel che|mi tor-|men-|ta,|e|che del|
 A4 z2 E2 | ^F4 z2 A2 | c4 z2 G2 | A4 c4 | B2 G2 A4- | A2 ^G^F G4 | A4 E4 | E8- | E4 F4 | E4 G4 | %82
w: mio mo-|rir, mo-|rir, mo-|rir se-|te con- ten-||ta, e|ch'al|_ pri-|mo ve-|
 G2 F2 E2 D2 | E4 A4 | B4 c4 | d8 | c4 A4 | A4 A4- | A2 A2 B4 | c8- | c4 A4 | G4 F4 | _B8 | A4 A4 | %94
w: der _ _ _|_ d'al-|tr'a- ma-|to-|re, e|ch'al pri-|* mo ve-|der|_ d'al-|tr'a- ma-|to-|re, can-|
 c8- | c4 B4 | A4 G4 | A8 | ^G8- | G8- | G8 | z4 E4 | E4 e4- | e4 d4- | d4 c4 | B8 | A8 | z4 G4 | %108
w: gia-|* st'il|vo- stro|co-|re,|_||non|è dun-|* que|_ mar-|ti-|re,|non|
 G8 | A8- | A4 G4- | G4 E4 | F8 | E4 E4 | A6 A2 | A4 B4 | c8- | c4 B4 | A4 G4 | A4 B4 | z4 E4 | %121
w: è|dun-|* que|_ mar-|ti-|re, il|con- ve-|nir per|voi,|_ don-|na, mo-|ri- re,|il|
 A6 A2 | A4 ^G4 | A4 c4 | c4 A4 | ^c4 d4 | z2 A4 d2- |"^-natural" d2 c2 B4 | B4 z2 A2 | E4 E4 | %130
w: con- ve-|nir per|voi, don-|na, mo-|ri- re,|don- na,|_ mo- ri-|re, don-|na, mo-|
 C4 B,4 | z8 |] %132
w: ri- re...||
V:2
 E8- | E4 E4 | z4 ^G4 | A4 c4- | c4 B4 | z4 A4 | G4 G4 | F4 E4 | z4 E4- | E4 C4 | F8 | E8- | %12
w: Non|_ è,|non|è las-|* so,|las-|so mar-|ti- re,|non|_ è|las-|so|
 E4 ^C4 | D8 | C4 A,4- | A,4 D4- | D2 F2 E4- | E4 E4 | A4 D4 | E8- | E4 D4 | C2 D2 E4- | E4 D4 | %23
w: _ mar-|ti-|re, il|_ con-|* ve- nir|_ per|voi, don-|na,|_ mo-|ri- * *||
 E8 | z4 A,4 | E6 E2 | E4 F4 | E4 z2 F2 | E2 A2 G2 E2 | z2 A,2 C4- | C4 B,4 | z4 B,4 | B,4 B,4 | %33
w: re,|il|con- ve-|nir per|voi, don-|na, mo- ri- re,|mo- ri-|* re,|se|la ca-|
 D4 z2 ^F2 | ^F4 A4 | ^G4 G4 |"^-natural" A6 G2 | F4 E4 | z4 E4 | E4 E4 | G4 E4 | D4 G4 | F4 D4 | %43
w: gion de|la mia|mor- t'è|ta- *|* le,|se|la ca-|gion de|la mia|mor- t'è|
 E8 | F4 z2 E2 | E4 F4 | E4 D4 | C4 B,4 | D2 G,2 A,4 | B,4 z2 E2 | ^F4 G4 | A4 A4 | A4 G4 | z4 C4 | %54
w: ta-|le, se|la ca-|gion de|la mia|mor- t'è ta-|le, che|fa lie-|ve'o- gni|ma- le,|che|
 D4 E4 | z2 A,2 B,2 B,2 | C2 D2 ^C4 | D8 | z4 A4 | G4 E4 | G4 z2 C2 | B,6 A,2 | E4 D4 | ^C8 | %64
w: fa liet'|che fa lie-|ti'o- gni ma-|le,|ma|quel che|mi, ma|quel che|mi tor-|men-|
 D4 A4 | G6 F2 | E4 C4 | D8 | A,4 A,4 | C4 B,4 | C8 | B,8 | z4 B,4 |"^#" D4 F4 | E6 E2 | E4 C4 | %76
w: ta, che|mi _|_ tor-|men-|ta, che|mi tor-|men-|ta,|e|che del|mio mo-|rir se-|
 D4 D4 | B,8 | ^C8 |"^-natural" z4 C4 | C4 C4- | C2 C2 D4 | E4 A,2 B,2 | C2 D2 E2 F2 | G4 A4- | %85
w: te con-|ten-|ta,|e|ch'al pri-|* mo ve-|der d'al- *||* tr'a-|
 A2 A2 G4 | A4 F4 | E4 F4- | F2 E2 ^F4 | G4 A4- | A4 F4 | D4 F4- | F4 E4 | F8 | z4 E4 | A,4 B,4 | %96
w: * ma- to-|re, e|ch'al pri-|* mo ve-|der d'al-|* tr'a-|ma- to-||re,|can|gia- st'il|
 C2 D2 E4- | E2 DC D4 | E8 | z4 E4 | E8 | z4 ^G4 | A4 c4- | c4 B4 | z4 A4 | G4 G4 | F4 E4 | %107
w: vo- stro co-||re,|non|è|non|è dun-|* que|dun-|que mar-|ti- re,|
 z4 E4- | E4 C4 | F8 | E8- | E4 ^C4 | D8 |"^-natural" C4 A,4- | A,4 D4- | D2 F2 E4- | E4 E4 | %117
w: non|_ è|dun-|que|_ mar-|ti-|re, il|_ con-|* ve- nir|_ per|
 A4 D4 | E8- | E4 D4 | C2 D2 E4- | E4 D4 | E8 | z4 A,4 | E6 E2 | E4 F4 | E4 z2 F2 | E2 A2 G2 E2 | %128
w: voi, don-|na,|_ mo-|ri- * *||re,|don-|na, mo-|ri- *|re, don-|na, mo- ri- re,|
 z4 E4 | C4 B,4 | A,4 G,4 | z8 |] %132
w: don-|na, mo-|ri- re...||
V:3
 z8 | E8 | E8 | A8 | G4 G4 | A8 | E8 | z4 A4 | E8- | E4 e4 | d4 D4 | A4 E4 | z4 A4 | D8 | A8 | z8 | %16
w: |Non|è|las-|so mar-|ti-|re,|non|è|_ las-|so mar-|ti- re,|mar-|ti-|re,||
 z4 E4 | A6 A2 | A4 B4 | c8- | c4 G4 | A6 A2 | F8 | E4 E4 | A6 A2 | A8- | A4 D4 | A4 D4 | %28
w: il|con- ve-|nir per|voi,|_ don-|na, mo-|ri-|re, il|con- ve-|nir,|_ don-|na, don-|
 A2 A2 E4 | A8 | z4 E4 | E4 E4 | G4 E4 | D4 d4 | d4 A4 | e8 | A8 | z4 A4 | A4 A4 | c4 A4 | G4 C4 | %41
w: na, mo- ri-|re,|se|la ca-|gion de|la mia|mor- t'è|ta-|le,|se|la ca-|gion de|la mia|
 G4 G4 | D8 | A8 | z4 A4 | A4 A4 | c4 G4 | A4 E4 | D2 E2 F4 | E8 | z4 e4 | A4 d4 | f2 f2 e4 | A8 | %54
w: mor- t'è|ta-|le,|se|la ca-|gion de|la mia|mor- t'è ta-|le,|che|fa lie-|ve'o- gni ma-|le,|
 z4 E4 | F4 G4 | A2 B2 A4 | D8 | z8 | z8 | z4 A4 | G6 F2 | E4 G4 | A8 | D8 | z8 | z8 | z4 d4 | %68
w: che|fa lie-|ti'o- gni ma-|le,|||ma|quel che|mi tor-|men-|ta,|||ma|
 c6 B2 | A4 E4 | A8 | E4 E4 | F4 E4 | D4 d4 | c8 | A8 | G4 D4 | E8 | A8 | z4 A4 | A4 A4- | %81
w: quel che|mi tor-|men-|ta, e|che del|mio mo-|rir|se-|te con-|ten-|ta,|e|ch'al pri-|
 A2 A2 B4 | c8- | c4 A4 | G4 F4 | _B8 | A4 d4 | c4 d4- | d2 c2 d4 |"^-natural" e4 f4- | f4 F4 | %91
w: * mo ve|der|_ d'al-|tr'a- ma-|to-|re, e|ch'al pri-|* mo ve-|der d'al-|* tr'a-|
 _B8 | G8 | F4 D4 | A8- | A4 G4 | F4 E4 | F8 | E8- | E8 | z4 E4 | E8 | A8 | G4 G4 | A8 | E8 | %106
w: ma-|to-|re, can-|gia-|* st'il|vo- stro|co-|re,|_|non|è,|dun-|que mar-|ti-|re,|
 z4 A4 | E8- | E4 e4 | d4 D4 | A4 E4 | z4 A4 | D8 | A8 | z8 | z4 E4 | A6 A2 | A4 B4 | c8- | c4 G4 | %120
w: non|è|_ dun-|que mar-|ti- re,|mar-|ti-|re,||il|con- ve-|nir per|voi,|_ don-|
 A6 A2 | F8 | E4 E4 | A6 A2 | A8- | A4 D4 | A4 D4 | A2 A2 E4 | E4 z2 A2 | A4 ^G4 | A4 E4 | z8 |] %132
w: na, mo-|ri-|re, il|con- ve-|nir,|_ don-|na,, don-|na, mo- ri-|re, don-|na, mo-|ri- re...||

